packages/assets/static/images/icons/person-simple-swim.svg

<svg width="24" height="24" viewBox="0 0 24 24" xmlns="http://www.w3.org/2000/svg">
<path d="M8.47863 10.1822L9.06363 9.59723C7.90244 8.95785 6.59796 8.62367 5.27238 8.62598H3.74988C3.45151 8.62598 3.16536 8.50745 2.95438 8.29647C2.7434 8.08549 2.62488 7.79935 2.62488 7.50098C2.62488 7.20261 2.7434 6.91646 2.95438 6.70548C3.16536 6.4945 3.45151 6.37598 3.74988 6.37598H5.27238C6.60249 6.37246 7.92009 6.63282 9.14889 7.14198C10.3777 7.65114 11.4933 8.39899 12.4311 9.34223L16.2046 13.1157C17.2114 13.141 18.2774 12.7744 19.5318 11.7347C19.6451 11.6375 19.7766 11.5639 19.9187 11.518C20.0608 11.4722 20.2106 11.4551 20.3593 11.4677C20.5081 11.4803 20.6529 11.5224 20.7852 11.5916C20.9175 11.6607 21.0347 11.7555 21.1301 11.8704C21.2254 11.9854 21.2969 12.1181 21.3404 12.2609C21.3839 12.4037 21.3985 12.5538 21.3834 12.7023C21.3683 12.8509 21.3238 12.9949 21.2525 13.1261C21.1812 13.2572 21.0845 13.3729 20.968 13.4663C19.2646 14.8791 17.7243 15.376 16.3264 15.376C14.4739 15.376 12.8708 14.505 11.4627 13.74C9.11332 12.4641 7.25707 11.4563 4.468 13.7691C4.23826 13.9596 3.94227 14.051 3.64514 14.0232C3.34801 13.9954 3.07409 13.8507 2.88363 13.621C2.69317 13.3912 2.60178 13.0952 2.62956 12.7981C2.65733 12.501 2.80201 12.2271 3.03175 12.0366C5.06894 10.3472 6.87175 9.96848 8.47863 10.1822ZM13.1249 6.75098C13.1249 6.08347 13.3228 5.43094 13.6937 4.87593C14.0645 4.32091 14.5916 3.88833 15.2083 3.63288C15.825 3.37744 16.5036 3.3106 17.1583 3.44083C17.813 3.57105 18.4144 3.89249 18.8864 4.36449C19.3584 4.83649 19.6798 5.43786 19.81 6.09255C19.9403 6.74723 19.8734 7.42583 19.618 8.04253C19.3625 8.65924 18.9299 9.18634 18.3749 9.55719C17.8199 9.92804 17.1674 10.126 16.4999 10.126C15.6048 10.126 14.7463 9.7704 14.1134 9.13746C13.4805 8.50453 13.1249 7.64608 13.1249 6.75098ZM15.3749 6.75098C15.3749 6.97348 15.4409 7.19099 15.5645 7.37599C15.6881 7.561 15.8638 7.70519 16.0694 7.79034C16.2749 7.87549 16.5011 7.89777 16.7194 7.85436C16.9376 7.81095 17.138 7.70381 17.2954 7.54647C17.4527 7.38914 17.5599 7.18868 17.6033 6.97045C17.6467 6.75223 17.6244 6.52603 17.5392 6.32046C17.4541 6.11489 17.3099 5.93919 17.1249 5.81557C16.9399 5.69196 16.7224 5.62598 16.4999 5.62598C16.2015 5.62598 15.9154 5.7445 15.7044 5.95548C15.4934 6.16646 15.3749 6.45261 15.3749 6.75098ZM19.5318 16.9847C16.7427 19.2975 14.8864 18.2897 12.5371 17.0129C10.0668 15.6722 6.99269 14.0025 3.03175 17.2875C2.91528 17.3809 2.81857 17.4966 2.74725 17.6278C2.67593 17.7589 2.63144 17.903 2.61635 18.0515C2.60127 18.2 2.6159 18.3501 2.6594 18.4929C2.70289 18.6357 2.77438 18.7685 2.8697 18.8834C2.96501 18.9983 3.08225 19.0931 3.21457 19.1622C3.34689 19.2314 3.49165 19.2735 3.64041 19.2861C3.78918 19.2988 3.93897 19.2817 4.08105 19.2358C4.22314 19.19 4.35468 19.1163 4.468 19.0191C7.25707 16.7072 9.11332 17.7141 11.4627 18.991C12.8689 19.755 14.4739 20.626 16.3264 20.626C17.7243 20.626 19.2646 20.13 20.968 18.7172C21.0818 18.6229 21.1758 18.5071 21.2448 18.3765C21.3138 18.2458 21.3564 18.1028 21.3702 17.9557C21.384 17.8086 21.3686 17.6602 21.325 17.519C21.2814 17.3778 21.2104 17.2466 21.1161 17.1329C21.0218 17.0191 20.906 16.925 20.7754 16.856C20.6447 16.787 20.5017 16.7444 20.3546 16.7307C20.2075 16.7169 20.0591 16.7323 19.9179 16.7759C19.7767 16.8194 19.6455 16.8904 19.5318 16.9847Z"/>
</svg>

<svg viewBox="0 0 24 24" xmlns="http://www.w3.org/2000/svg" aria-hidden="true" fill="currentColor" height="24px" width="24px"><path d="m8.479 10.182.585-.585a7.83 7.83 0 0 0-3.792-.971H3.75a1.125 1.125 0 0 1 0-2.25h1.522a10.06 10.06 0 0 1 7.16 2.966l3.773 3.774c1.006.025 2.072-.342 3.327-1.381a1.125 1.125 0 1 1 1.436 1.731c-1.703 1.413-3.244 1.91-4.642 1.91-1.852 0-3.455-.871-4.863-1.636-2.35-1.276-4.206-2.284-6.995.03a1.125 1.125 0 1 1-1.436-1.733c2.037-1.69 3.84-2.069 5.447-1.855m4.646-3.431a3.375 3.375 0 1 1 6.75 0 3.375 3.375 0 0 1-6.75 0m2.25 0a1.125 1.125 0 1 0 2.25 0 1.125 1.125 0 0 0-2.25 0m4.157 10.234c-2.79 2.313-4.646 1.305-6.995.028-2.47-1.34-5.544-3.01-9.505.274a1.125 1.125 0 1 0 1.436 1.732c2.79-2.312 4.645-1.305 6.995-.028 1.406.764 3.01 1.635 4.863 1.635 1.398 0 2.939-.496 4.642-1.909a1.125 1.125 0 1 0-1.436-1.732"/></svg>
